X: 84
T:Tennessee Waltz, The
R:Waltz
C:King & Stewart 1948
S:https://trillian.mit.edu/~jc/music/abc/mirror/code.google.com/Tennessee_Waltz_The_1.abc
M:3/4
L:1/4
Q:1/4=100
K:D
D/>E/|:"D" F A D/>E/|"Dmaj7" F A d/>e/|"D7" f f e|"G" d B B/>c/|"D" d A F|"G" B "D" A F|"A" E2 z|z2 D/>E/|
|"D" F A D/>E/|"Dmaj7" F A d|"D7"f3/2 g/ f/>E/|"G" d B B/>c/|"D" d A F|"A7" G F E|"D" D2 z|1zD/>E/:|2zd/>e/|]
|:"D" f f3/2 f/|"F#7" e2 f/>e/|"G" d B d|"D" A2 "G" B/>c/|"D" d A F|"G" B "D" A F|"E7" E2 z|"A" z2 D/>E/|
|"D" F A D/>E/|"Dmaj7" F A d/>e/|"D7" f a f/>e/|"G" d B A/B/4c/4|"D" d A F|"A7" G F E|"D" D3|1 D d/>e/:|2 D3|]

